Numix/categories/48/applications-roleplaying.svg

<svg xmlns="http://www.w3.org/2000/svg" viewBox="0 0 256 256" xmlns:xlink="http://www.w3.org/1999/xlink">
<g style="stroke:#569ca6;stroke-width:4.545;fill:#569ca6">
<g>
<path d="m 69.164014,106.24524 c 1.62701,7.53871 2.5352,13.24104 1.21528,20.7793 -10.2905,8.36326 -36.60835,12.12148 -36.56881,20.7793 l -3.53774,25.97299 c 0,8.60917 24.53421,15.58653 54.80026,15.58653 30.264246,0 54.800256,-6.97736 54.800256,-15.58471 l -3.54092,-25.973 c -0.0409,-7.40916 -26.51376,-12.12285 -36.677446,-20.77748 -0.86819,-7.00007 -0.17728,-13.78195 1.327286,-20.78202 H 69.163834 z"/>
<path d="m 84.818634,57.544745 c -12.55187,0 -22.72738,9.788281 -22.72738,21.862948 0.0982,4.468591 0.46841,9.776917 3.03034,21.862947 1.51519,4.68505 15.02961,18.08564 15.15189,19.64747 2.93842,1.56165 7.57594,1.56165 10.60596,0 0,-1.56165 12.121426,-14.96242 13.636436,-19.64747 2.88296,-12.561035 2.87569,-17.178354 3.03033,-21.862947 0,-12.074667 -10.175516,-21.862948 -22.727386,-21.862948 z"/>
</g>
<g style="stroke-linejoin:round">
<path d="m 132.74614,71.181247 c -7.67049,-4.545501 -20.11054,-36.22673 -18.1819,-22.727503 l 4.54547,31.818504 13.63643,-9.091001 z"/>
<path d="m 178.0009,71.181247 c 7.67049,-4.545501 20.11055,-36.22673 18.1819,-22.727503 l -4.54547,31.818504 -13.63643,-9.091001 z"/>
</g>
<g>
<path d="m 134.81887,107.54525 c 2.09192,9.89419 3.25952,17.37881 1.56251,27.273 -13.23188,10.97738 -47.068406,15.90925 -47.018406,27.273 l -4.54547,34.09127 c 0,11.29692 31.543796,20.45474 70.454876,20.45474 38.91109,0 70.45488,-9.15782 70.45488,-20.45474 l -4.54547,-34.09127 c -0.0545,-9.72737 -34.09108,-15.90925 -47.15932,-27.273 -1.11819,-9.18191 -0.22727,-18.09109 1.70455,-27.273 h -40.90928 z"/>
<path d="m 155.27352,39.362744 c -18.82782,0 -34.09108,14.245598 -34.09108,31.818503 0.14773,6.503247 0.7026,14.229234 4.54548,31.818503 2.27274,6.81825 22.54465,25.00025 22.72738,27.273 4.40761,2.27275 11.36369,2.27275 15.90917,0 0,-2.27275 18.1819,-20.45475 20.45464,-27.273 4.32448,-18.28064 4.31352,-25.000252 4.54548,-31.818503 0,-17.572905 -15.26326,-31.818503 -34.09107,-31.818503 z"/>
</g>
</g>
</svg>

<svg width="47.5" xmlns="http://www.w3.org/2000/svg" height="47.5" viewBox="0 0 38 38" xmlns:xlink="http://www.w3.org/1999/xlink">
<g style="stroke:#559ca5;stroke-width:4.545;fill:#559ca5">
<g>
<path d="M 69.157895 106.236842 C 70.789474 113.789474 71.710526 119.473684 70.368421 127.026316 C 60.078947 135.394737 33.763158 139.157895 33.815789 147.815789 L 30.263158 173.789474 C 30.263158 182.394737 54.815789 189.368421 85.078947 189.368421 C 115.342105 189.368421 139.868421 182.394737 139.868421 173.789474 L 136.342105 147.815789 C 136.289474 140.394737 109.815789 135.684211 99.657895 127.026316 C 98.789474 120.026316 99.473684 113.236842 100.973684 106.236842 Z " transform="scale(.14844)"/>
<path d="M 84.815789 57.552632 C 72.263158 57.552632 62.078947 67.342105 62.078947 79.394737 C 62.184211 83.868421 62.552632 89.184211 65.131579 101.263158 C 66.631579 105.947368 80.157895 119.368421 80.263158 120.921053 C 83.210526 122.473684 87.842105 122.473684 90.868421 120.921053 C 90.868421 119.368421 103 105.947368 104.526316 101.263158 C 107.394737 88.710526 107.394737 84.105263 107.552632 79.394737 C 107.552632 67.342105 97.368421 57.552632 84.815789 57.552632 Z " transform="scale(.14844)"/>
</g>
<g style="stroke-linejoin:round">
<path d="M 132.736842 71.184211 C 125.078947 66.631579 112.631579 34.947368 114.552632 48.447368 L 119.105263 80.263158 Z " transform="scale(.14844)"/>
<path d="M 178 71.184211 C 185.684211 66.631579 198.105263 34.947368 196.184211 48.447368 L 191.631579 80.263158 Z " transform="scale(.14844)"/>
</g>
<g>
<path d="M 134.815789 107.552632 C 136.921053 117.447368 138.078947 124.921053 136.368421 134.815789 C 123.157895 145.789474 89.315789 150.736842 89.368421 162.078947 L 84.815789 196.184211 C 84.815789 207.473684 116.368421 216.631579 155.263158 216.631579 C 194.184211 216.631579 225.736842 207.473684 225.736842 196.184211 L 221.184211 162.078947 C 221.131579 152.368421 187.078947 146.184211 174.026316 134.815789 C 172.894737 125.631579 173.789474 116.736842 175.736842 107.552632 Z " transform="scale(.14844)"/>
<path d="M 155.263158 39.368421 C 136.447368 39.368421 121.184211 53.605263 121.184211 71.184211 C 121.342105 77.684211 121.894737 85.421053 125.736842 103 C 128 109.815789 148.263158 128 148.447368 130.263158 C 152.868421 132.552632 159.815789 132.552632 164.368421 130.263158 C 164.368421 128 182.552632 109.815789 184.815789 103 C 189.131579 84.710526 189.131579 78 189.368421 71.184211 C 189.368421 53.605263 174.105263 39.368421 155.263158 39.368421 Z " transform="scale(.14844)"/>
</g>
</g>
</svg>
